img/pant.svg

<svg width="49" height="48" viewBox="0 0 49 48" fill="none" xmlns="http://www.w3.org/2000/svg">
<g clip-path="url(#clip0_1499_1692)">
<path d="M10.4375 33.8438C8.11128 33.8438 6.21875 35.7363 6.21875 38.0625C6.21875 40.3887 8.11128 42.2812 10.4375 42.2812C12.7637 42.2812 14.6562 40.3887 14.6562 38.0625C14.6562 35.7363 12.7637 33.8438 10.4375 33.8438ZM10.4375 39.4688C9.66209 39.4688 9.03125 38.8379 9.03125 38.0625C9.03125 37.2871 9.66209 36.6562 10.4375 36.6562C11.2129 36.6562 11.8438 37.2871 11.8438 38.0625C11.8438 38.8379 11.2129 39.4688 10.4375 39.4688Z" fill="#9A9CA5"/>
<path d="M45.9619 28.569C46.9212 27.2708 47.098 25.4603 46.2256 23.9496L40.6035 14.118C39.631 12.4335 37.5801 11.6648 35.7507 12.1538C36.1402 10.4029 35.3759 8.52441 33.7423 7.58119L24 1.95656C22.6087 1.15313 20.9451 1.23544 19.6657 2.02678C18.9242 0.812437 17.5865 0 16.0625 0H4.71875C2.39253 0 0.5 1.89253 0.5 4.21875C0.5 5.19422 0.5 42.6583 0.5 43.7812C0.5 46.1075 2.39253 48 4.71875 48C5.81122 48 38.9345 48 44.2812 48C46.6075 48 48.5 46.1075 48.5 43.7812V32.4375C48.5 30.7085 47.454 29.2197 45.9619 28.569ZM17.4688 43.7812C17.4688 44.5567 16.8379 45.1875 16.0625 45.1875H4.71875C3.94334 45.1875 3.3125 44.5567 3.3125 43.7812C3.3125 43.1388 3.3125 31.6483 3.3125 31.0312H17.4688V43.7812ZM17.4688 28.2188H3.3125V16.875H17.4688V28.2188ZM17.4688 14.0625H3.3125V4.21875C3.3125 3.44334 3.94334 2.8125 4.71875 2.8125H16.0625C16.8379 2.8125 17.4688 3.44334 17.4688 4.21875V14.0625ZM20.2812 5.5845L20.6723 4.90716C21.0602 4.23544 21.9222 4.00444 22.5938 4.39228L32.336 10.0169C33.0077 10.4047 33.2386 11.2667 32.8498 11.9403L31.2249 14.7647C31.1842 14.8248 31.1476 14.8872 31.1169 14.9524L20.2812 33.787V5.5845ZM20.2812 39.427L33.4271 16.5767L36.1452 15.0074C36.8342 14.6096 37.7793 14.8512 38.165 15.5192L43.7871 25.3507C44.176 26.0242 43.9492 26.8877 43.2688 27.2805C42.2645 27.8618 21.2702 40.0161 20.2812 40.5886V39.427ZM45.6875 43.7812C45.6875 44.5567 45.0567 45.1875 44.2812 45.1875H20.0394C20.1893 44.7647 20.2734 44.3113 20.2798 43.8393L42.4034 31.0312H44.2812C45.0567 31.0312 45.6875 31.6621 45.6875 32.4375V43.7812Z" fill="#9A9CA5"/>
</g>
<defs>
<clipPath id="clip0_1499_1692">
<rect width="48" height="48" fill="white" transform="translate(0.5)"/>
</clipPath>
</defs>
</svg>

<svg width="49" height="48" fill="none" xmlns="http://www.w3.org/2000/svg"><g clip-path="url(#clip0_1499_1692)" fill="#9A9CA5"><path d="M10.438 33.844a4.224 4.224 0 00-4.22 4.218 4.224 4.224 0 004.22 4.22 4.223 4.223 0 004.218-4.22 4.223 4.223 0 00-4.219-4.218zm0 5.625a1.408 1.408 0 010-2.813c.775 0 1.406.631 1.406 1.407 0 .775-.631 1.406-1.406 1.406z"/><path d="M45.962 28.569a4.22 4.22 0 00.264-4.62l-5.623-9.831c-.972-1.684-3.023-2.453-4.852-1.964a4.227 4.227 0 00-2.009-4.573L24 1.957a4.222 4.222 0 00-4.334.07A4.22 4.22 0 0016.062 0H4.72A4.224 4.224 0 00.5 4.219V43.78A4.224 4.224 0 004.719 48H44.28a4.224 4.224 0 004.219-4.219V32.438a4.224 4.224 0 00-2.538-3.869zM17.469 43.781c0 .776-.631 1.407-1.407 1.407H4.72c-.776 0-1.407-.631-1.407-1.407v-12.75H17.47v12.75zm0-15.562H3.312V16.875H17.47v11.344zm0-14.157H3.312V4.22c0-.776.631-1.407 1.407-1.407h11.343c.776 0 1.407.631 1.407 1.407v9.843zm2.812-8.477l.391-.678a1.408 1.408 0 011.922-.515l9.742 5.625c.672.388.903 1.25.514 1.923l-1.625 2.825c-.04.06-.077.122-.108.187L20.28 33.787V5.584zm0 33.842l13.146-22.85 2.718-1.57c.69-.397 1.634-.156 2.02.512l5.622 9.832a1.411 1.411 0 01-.518 1.93c-1.005.58-21.999 12.735-22.988 13.308v-1.162zm25.407 4.354c0 .776-.631 1.407-1.407 1.407H20.04c.15-.423.234-.877.24-1.349l22.124-12.808h1.878c.776 0 1.407.631 1.407 1.407V43.78z"/></g><defs><clipPath id="clip0_1499_1692"><path fill="#fff" transform="translate(.5)" d="M0 0h48v48H0z"/></clipPath></defs></svg>
